assets/images/svg/star-outline.svg

<svg width="15" height="15" viewBox="0 0 15 15" fill="none" xmlns="http://www.w3.org/2000/svg">
<path d="M8.62296 1.93872L9.76684 4.24537C9.92282 4.56647 10.3388 4.87446 10.6897 4.93343L12.763 5.28074C14.0889 5.50354 14.4008 6.47339 13.4454 7.43012L11.8336 9.05526C11.5606 9.33049 11.4112 9.86128 11.4956 10.2414L11.9571 12.2531C12.3211 13.8455 11.4826 14.4615 10.0853 13.6293L8.14202 12.4694C7.79106 12.2597 7.21262 12.2597 6.85516 12.4694L4.91187 13.6293C3.52103 14.4615 2.67612 13.8389 3.04008 12.2531L3.50153 10.2414C3.58602 9.86128 3.43654 9.33049 3.16357 9.05526L1.55175 7.43012C0.60285 6.47339 0.908316 5.50354 2.23417 5.28074L4.30744 4.93343C4.6519 4.87446 5.06786 4.56647 5.22384 4.24537L6.36771 1.93872C6.99164 0.687095 8.00553 0.687095 8.62296 1.93872Z" stroke="#FFC412" stroke-width="1.5" stroke-linecap="round" stroke-linejoin="round"/>
</svg>

<svg xmlns="http://www.w3.org/2000/svg" width="15" height="15" fill="none" viewBox="0 0 15 15"><path stroke="#ffc412" stroke-linecap="round" stroke-linejoin="round" stroke-width="1.5" d="m8.623 1.939 1.144 2.306c.156.321.572.63.923.688l2.073.348c1.326.223 1.638 1.192.682 2.15l-1.611 1.624c-.273.275-.423.806-.338 1.186l.461 2.012c.364 1.592-.474 2.208-1.872 1.376l-1.943-1.16c-.35-.21-.93-.21-1.287 0l-1.943 1.16c-1.391.832-2.236.21-1.872-1.376l.462-2.012c.084-.38-.065-.91-.338-1.186L1.552 7.43c-.95-.957-.644-1.926.682-2.15l2.073-.347c.345-.059.76-.367.917-.688L6.368 1.94c.624-1.252 1.638-1.252 2.255 0"/></svg>
